X:48
T: Verje meg az Isten a mészárosokat...
K: Bb
M: 4/4
L: 1/4
g2 gf | ba/g/ g<f | 
g g/f/ f<e | g d/c/ d<d | 
cd e<c | dd/c/ c<B | 
c/c/c/ d/d/d/ | d/c/B/c/ G G | z | 

